X:11922
T:no name
R:reel
S:Tape of Gary Hastings recorded in Portrush -81
Z:id:hn-reel-727
M:C|
K:D
d2cA {c}BAFA|EAFA EAFA|1 d2cA {c}BAFB|ABde fa{b}ge:|2 d3A {c}BAFB|ABde {a}fdd2||
a2{c'}af dfaf|ceae ceae|a2{c'}af df{c'}af|ecAc edd2|
a2{c'}af df{c'}af|edcd BcA2|d3A {c}BAFB|ABde {a}fdd2||
